!!!OTL: Graf und Nonne (Die Nonne) Steig auf jenes Beargilei,
!!!ARE: Europa, Suedosteuropa, Rumaenien, Sathmar, Arded, Scheindorf
!!!YOR: 8, S. 87
!!    1937 aufgezeichnet
!!!SCT: Q0155d
!!!YEM: Copyright 1995, estate of Helmut Schaffrath.
**kern
*ICvox
*Ivox
*M4/4
*k[f#c#g#d#]
*E:
=1
{4b
4a
4g#
4b
=2
4a
4g#
2f#}
=3
{4b
4a
4g#
4f#
=4
4e
8f#
8g#
4f#}
{4B
=5
8.g#
16f#
8.e
16d#
8g#
8f#
4e
=6
4e
4cc#
4b}
{4a
=7
8g#
8b
4g#
8f#
16g#
16e
4f#
=8
2e
2r}
==
!!!AGN: Ballade, Standesunterschied, vergebliche Werbung, Liebe, Klage
!! Schlusspause korrigiert.
!!!ONB: ESAC (Essen Associative Code) Database: BALLADE
!!!AMT: simple quadruple
!!!AIN: vox
!!!EED: Helmut Schaffrath
!!!EEV: 1.0
*-
